remix/Media/hq-fill.svg

<svg viewBox="0 0 24 24" fill="currentColor" xmlns="http://www.w3.org/2000/svg"><path d="M3 3H21C21.5523 3 22 3.44772 22 4V20C22 20.5523 21.5523 21 21 21H3C2.44772 21 2 20.5523 2 20V4C2 3.44772 2.44772 3 3 3ZM7.5 11.25V9H6V15H7.5V12.75H9.5V15H11V9H9.5V11.25H7.5ZM16.25 15H17C17.5523 15 18 14.5523 18 14V10C18 9.44772 17.5523 9 17 9H14C13.4477 9 13 9.44772 13 10V14C13 14.5523 13.4477 15 14 15H14.75V16.5H16.25V15ZM14.5 10.5H16.5V13.5H14.5V10.5Z"/></svg>

<svg viewBox="0 0 24 24" xmlns="http://www.w3.org/2000/svg"><path fill="none" d="M0 0h24v24H0Z"/><path d="M3 3h18v0c.55 0 1 .44 1 1v16 0c0 .55-.45 1-1 1H3v0c-.56 0-1-.45-1-1V4v0c0-.56.44-1 1-1Zm4.5 8.25V9H6v6h1.5v-2.25h2V15H11V9H9.5v2.25h-2ZM16.25 15H17v0c.55 0 1-.45 1-1v-4 0c0-.56-.45-1-1-1h-3v0c-.56 0-1 .44-1 1v4 0c0 .55.44 1 1 1h.75v1.5h1.5V15Zm-1.75-4.5h2v3h-2v-3Z"/></svg>
